assets/icons/pet-cage.svg

<svg width="25" height="20" viewBox="0 0 25 20" fill="none" xmlns="http://www.w3.org/2000/svg">
<path d="M14.7258 0H9.42255C8.7558 0 8.21533 0.540503 8.21533 1.20722V2.77662H9.42255V1.4487C9.42255 1.31534 9.53063 1.20725 9.66399 1.20725H14.4843C14.6177 1.20725 14.7258 1.31534 14.7258 1.4487V2.77665H15.933V1.20722C15.933 0.540503 15.3925 0 14.7258 0Z" fill="url(#paint0_linear_11_1119)"/>
<path d="M2.67798 11.9925L4.27605 19.0595C4.40046 19.6098 4.8894 20.0005 5.45354 20.0005H18.695C19.2591 20.0005 19.7481 19.6098 19.8725 19.0595L21.4705 11.9925V10.1817L19.8848 3.69777C19.7527 3.15742 19.2684 2.77734 18.7121 2.77734H5.45354C4.8894 2.77734 4.40046 3.16804 4.27605 3.71831L2.67798 10.7853V11.9925Z" fill="url(#paint1_linear_11_1119)"/>
<path d="M19.8846 3.69777C19.7525 3.15742 19.2682 2.77734 18.7119 2.77734H18.5492C18.6055 2.87469 18.6496 2.98062 18.6774 3.09418L19.8329 7.8191C20.1187 8.98752 20.5185 10.2135 20.2631 11.3889C19.2469 16.0655 15.1041 19.4048 10.3169 19.4013C8.34717 19.3998 6.37746 19.3984 4.40771 19.3969C4.61892 19.7627 5.01322 20.0005 5.45333 20.0005H18.6948C19.2589 20.0005 19.7479 19.6098 19.8723 19.0595L21.4703 11.9925V10.1817L19.8846 3.69777Z" fill="url(#paint2_linear_11_1119)"/>
<path d="M12.0741 8.39724C11.7407 8.39724 11.4705 8.12697 11.4705 7.79361V5.76769C11.4705 5.43433 11.7407 5.16406 12.0741 5.16406C12.4074 5.16406 12.6777 5.43433 12.6777 5.76769V7.79361C12.6777 8.12697 12.4074 8.39724 12.0741 8.39724Z" fill="#FFF9E2"/>
<path d="M16.2992 8.39754C16.0391 8.39754 15.799 8.22813 15.721 7.96614L15.1173 5.94022C15.0221 5.62073 15.204 5.28456 15.5235 5.18937C15.843 5.09413 16.1791 5.27601 16.2743 5.5955L16.8779 7.62142C16.9731 7.94091 16.7913 8.27707 16.4718 8.37227C16.4143 8.38938 16.3563 8.39754 16.2992 8.39754Z" fill="#FFF9E2"/>
<path d="M7.84915 8.39754C7.79208 8.39754 7.73408 8.38938 7.67654 8.37227C7.35705 8.27707 7.17521 7.94091 7.27041 7.62142L7.87404 5.5955C7.96923 5.27601 8.30536 5.09413 8.62489 5.18937C8.94438 5.28456 9.12621 5.62073 9.03102 5.94022L8.42739 7.9661C8.34934 8.22809 8.10923 8.39754 7.84915 8.39754Z" fill="#FFF9E2"/>
<path d="M12.0741 17.3103C11.7407 17.3103 11.4705 17.0401 11.4705 16.7067V14.6808C11.4705 14.3474 11.7407 14.0771 12.0741 14.0771C12.4074 14.0771 12.6777 14.3474 12.6777 14.6808V16.7067C12.6777 17.0401 12.4074 17.3103 12.0741 17.3103Z" fill="#FFF9E2"/>
<path d="M15.696 17.3106C15.639 17.3106 15.581 17.3024 15.5235 17.2853C15.204 17.1901 15.0221 16.8539 15.1173 16.5345L15.721 14.5085C15.8162 14.1891 16.1522 14.0073 16.4718 14.1024C16.7913 14.1976 16.9731 14.5338 16.8779 14.8533L16.2743 16.8792C16.1962 17.1412 15.9561 17.3106 15.696 17.3106Z" fill="#FFF9E2"/>
<path d="M8.45227 17.3116C8.1922 17.3116 7.95208 17.1422 7.87404 16.8802L7.27041 14.8543C7.17521 14.5348 7.35705 14.1987 7.67654 14.1035C7.99607 14.0081 8.33216 14.1901 8.42739 14.5096L9.03102 16.5355C9.12621 16.855 8.94438 17.1912 8.62489 17.2864C8.56735 17.3035 8.5093 17.3116 8.45227 17.3116Z" fill="#FFF9E2"/>
<g filter="url(#filter0_d_11_1119)">
<path d="M21.6716 11.9915H2.47664C2.25437 11.9915 2.07422 11.8114 2.07422 11.5891V10.5831C2.07422 10.3608 2.25437 10.1807 2.47664 10.1807H21.6716C21.8939 10.1807 22.074 10.3608 22.074 10.5831V11.5891C22.074 11.8114 21.8939 11.9915 21.6716 11.9915Z" fill="white"/>
</g>
<g filter="url(#filter1_d_11_1119)">
<path d="M13.8257 12.4481H10.3226C10.1003 12.4481 9.92017 12.268 9.92017 12.0457V10.128C9.92017 9.90574 10.1003 9.72559 10.3226 9.72559H13.8257C14.048 9.72559 14.2281 9.90574 14.2281 10.128V12.0457C14.2281 12.268 14.0479 12.4481 13.8257 12.4481Z" fill="#FFE5AC"/>
</g>
<path d="M13.8257 9.72559H13.0209C13.0209 10.8958 12.0722 11.8445 10.902 11.8445H9.92017V12.0457C9.92017 12.2679 10.1003 12.4481 10.3226 12.4481H13.8257C14.048 12.4481 14.2281 12.2679 14.2281 12.0457V10.128C14.2281 9.90578 14.048 9.72559 13.8257 9.72559Z" fill="#FFF6E1"/>
<defs>
<filter id="filter0_d_11_1119" x="0.0742188" y="9.18066" width="23.9998" height="5.81055" filterUnits="userSpaceOnUse" color-interpolation-filters="sRGB">
<feFlood flood-opacity="0" result="BackgroundImageFix"/>
<feColorMatrix in="SourceAlpha" type="matrix" values="0 0 0 0 0 0 0 0 0 0 0 0 0 0 0 0 0 0 127 0" result="hardAlpha"/>
<feOffset dy="1"/>
<feGaussianBlur stdDeviation="1"/>
<feComposite in2="hardAlpha" operator="out"/>
<feColorMatrix type="matrix" values="0 0 0 0 0.846777 0 0 0 0 0.584621 0 0 0 0 0.00971645 0 0 0 0.17 0"/>
<feBlend mode="normal" in2="BackgroundImageFix" result="effect1_dropShadow_11_1119"/>
<feBlend mode="normal" in="SourceGraphic" in2="effect1_dropShadow_11_1119" result="shape"/>
</filter>
<filter id="filter1_d_11_1119" x="4.92017" y="5.72559" width="14.3079" height="12.7227" filterUnits="userSpaceOnUse" color-interpolation-filters="sRGB">
<feFlood flood-opacity="0" result="BackgroundImageFix"/>
<feColorMatrix in="SourceAlpha" type="matrix" values="0 0 0 0 0 0 0 0 0 0 0 0 0 0 0 0 0 0 127 0" result="hardAlpha"/>
<feOffset dy="1"/>
<feGaussianBlur stdDeviation="2.5"/>
<feComposite in2="hardAlpha" operator="out"/>
<feColorMatrix type="matrix" values="0 0 0 0 0.737533 0 0 0 0 0.534613 0 0 0 0 0.0852892 0 0 0 1 0"/>
<feBlend mode="normal" in2="BackgroundImageFix" result="effect1_dropShadow_11_1119"/>
<feBlend mode="normal" in="SourceGraphic" in2="effect1_dropShadow_11_1119" result="shape"/>
</filter>
<linearGradient id="paint0_linear_11_1119" x1="12.0742" y1="0" x2="12.0742" y2="2.77665" gradientUnits="userSpaceOnUse">
<stop stop-color="#FFD986"/>
<stop offset="1" stop-color="#FABF3E"/>
</linearGradient>
<linearGradient id="paint1_linear_11_1119" x1="12.0743" y1="2.77734" x2="12.0743" y2="20.0005" gradientUnits="userSpaceOnUse">
<stop stop-color="#FFD986"/>
<stop offset="1" stop-color="#FABF3E"/>
</linearGradient>
<linearGradient id="paint2_linear_11_1119" x1="20.5" y1="4.5" x2="12.939" y2="20.0005" gradientUnits="userSpaceOnUse">
<stop stop-color="#FFD984"/>
<stop offset="1" stop-color="#F5B42A"/>
</linearGradient>
</defs>
</svg>

<svg version="1.2" xmlns="http://www.w3.org/2000/svg" viewBox="0 0 25 26" width="25" height="26">
	<title>pet-cage</title>
	<defs>
		<linearGradient id="g1" x2="1" gradientUnits="userSpaceOnUse" gradientTransform="matrix(0,2.777,-7.718,0,12.074,0)">
			<stop offset="0" stop-color="#ffd986"/>
			<stop offset="1" stop-color="#fabf3e"/>
		</linearGradient>
		<linearGradient id="g2" x2="1" gradientUnits="userSpaceOnUse" gradientTransform="matrix(0,17.223,-18.793,0,12.074,2.777)">
			<stop offset="0" stop-color="#ffd986"/>
			<stop offset="1" stop-color="#fabf3e"/>
		</linearGradient>
		<linearGradient id="g3" x2="1" gradientUnits="userSpaceOnUse" gradientTransform="matrix(-7.561,15.5,-9.92,-4.839,20.5,4.5)">
			<stop offset="0" stop-color="#ffd984"/>
			<stop offset="1" stop-color="#f5b42a"/>
		</linearGradient>
	</defs>
	<style>
		.s0 { fill: url(#g1) } 
		.s1 { fill: url(#g2) } 
		.s2 { fill: url(#g3) } 
		.s3 { fill: #fff9e2 } 
		.s4 { fill: #ffffff } 
		.s5 { fill: #ffe5ac } 
		.s6 { fill: #fff6e1 } 
	</style>
	<path class="s0" d="m14.7 0h-5.3c-0.6 0-1.2 0.5-1.2 1.2v1.6h1.2v-1.4c0-0.1 0.1-0.2 0.3-0.2h4.8c0.1 0 0.2 0.1 0.2 0.2v1.4h1.2v-1.6c0-0.7-0.5-1.2-1.2-1.2z"/>
	<path class="s1" d="m2.7 12l1.6 7.1c0.1 0.5 0.6 0.9 1.2 0.9h13.2c0.6 0 1-0.4 1.2-0.9l1.6-7.1v-1.8l-1.6-6.5c-0.1-0.5-0.6-0.9-1.2-0.9h-13.2c-0.6 0-1.1 0.4-1.2 0.9l-1.6 7.1z"/>
	<path class="s2" d="m19.9 3.7c-0.1-0.5-0.6-0.9-1.2-0.9h-0.2q0.1 0.1 0.2 0.3l1.1 4.7c0.3 1.2 0.7 2.4 0.5 3.6-1.1 4.7-5.2 8-10 8q-2.9 0-5.9 0c0.2 0.4 0.6 0.6 1.1 0.6h13.2c0.6 0 1-0.4 1.2-0.9l1.6-7.1v-1.8z"/>
	<path class="s3" d="m12.1 8.4c-0.4 0-0.6-0.3-0.6-0.6v-2c0-0.4 0.2-0.6 0.6-0.6 0.3 0 0.6 0.2 0.6 0.6v2c0 0.3-0.3 0.6-0.6 0.6z"/>
	<path class="s3" d="m16.3 8.4c-0.3 0-0.5-0.2-0.6-0.4l-0.6-2.1c-0.1-0.3 0.1-0.6 0.4-0.7 0.3-0.1 0.7 0.1 0.8 0.4l0.6 2c0.1 0.3-0.1 0.7-0.4 0.8q-0.1 0-0.2 0z"/>
	<path class="s3" d="m7.8 8.4q0 0-0.1 0c-0.3-0.1-0.5-0.5-0.4-0.8l0.6-2c0.1-0.3 0.4-0.5 0.7-0.4 0.3 0.1 0.5 0.4 0.4 0.7l-0.6 2.1c-0.1 0.2-0.3 0.4-0.6 0.4z"/>
	<path class="s3" d="m12.1 17.3c-0.4 0-0.6-0.3-0.6-0.6v-2c0-0.4 0.2-0.6 0.6-0.6 0.3 0 0.6 0.2 0.6 0.6v2c0 0.3-0.3 0.6-0.6 0.6z"/>
	<path class="s3" d="m15.7 17.3q-0.1 0-0.2 0c-0.3-0.1-0.5-0.4-0.4-0.8l0.6-2c0.1-0.3 0.5-0.5 0.8-0.4 0.3 0.1 0.5 0.4 0.4 0.8l-0.6 2c-0.1 0.2-0.3 0.4-0.6 0.4z"/>
	<path class="s3" d="m8.5 17.3c-0.3 0-0.5-0.2-0.6-0.4l-0.6-2c-0.1-0.4 0.1-0.7 0.4-0.8 0.3-0.1 0.6 0.1 0.7 0.4l0.6 2c0.1 0.4-0.1 0.7-0.4 0.8q-0.1 0-0.1 0z"/>
	<g>
		<path class="s4" d="m21.7 12h-19.2c-0.2 0-0.4-0.2-0.4-0.4v-1c0-0.2 0.2-0.4 0.4-0.4h19.2c0.2 0 0.4 0.2 0.4 0.4v1c0 0.2-0.2 0.4-0.4 0.4z"/>
	</g>
	<g>
		<path class="s5" d="m13.8 12.4h-3.5c-0.2 0-0.4-0.1-0.4-0.4v-1.9c0-0.2 0.2-0.4 0.4-0.4h3.5c0.2 0 0.4 0.2 0.4 0.4v1.9c0 0.3-0.2 0.4-0.4 0.4z"/>
	</g>
	<path class="s6" d="m13.8 9.7h-0.8c0 1.2-0.9 2.1-2.1 2.1h-1v0.2c0 0.3 0.2 0.4 0.4 0.4h3.5c0.2 0 0.4-0.1 0.4-0.4v-1.9c0-0.2-0.2-0.4-0.4-0.4z"/>
</svg>
